src/assets/images/CalanderIcon.svg

<svg fill="none" height="20" viewBox="0 0 21 20" width="21" xmlns="http://www.w3.org/2000/svg"><path d="m15.25 2h4c.2652 0 .5196.10536.7071.29289.1875.18754.2929.44189.2929.70711v16c0 .2652-.1054.5196-.2929.7071s-.4419.2929-.7071.2929h-18c-.265216 0-.51957-.1054-.707107-.2929-.187536-.1875-.292893-.4419-.292893-.7071v-16c0-.26522.105357-.51957.292893-.70711.187537-.18753.441891-.29289.707107-.29289h4v-2h2v2h6v-2h2zm-2 2h-6v2h-2v-2h-3v4h16v-4h-3v2h-2zm5 6h-16v8h16z" fill="#000"/></svg>

<svg width="21" height="20" viewBox="0 0 21 20" fill="none" xmlns="http://www.w3.org/2000/svg">
<path d="M15.25 2H19.25C19.5152 2 19.7696 2.10536 19.9571 2.29289C20.1446 2.48043 20.25 2.73478 20.25 3V19C20.25 19.2652 20.1446 19.5196 19.9571 19.7071C19.7696 19.8946 19.5152 20 19.25 20H1.25C0.984784 20 0.73043 19.8946 0.542893 19.7071C0.355357 19.5196 0.25 19.2652 0.25 19V3C0.25 2.73478 0.355357 2.48043 0.542893 2.29289C0.73043 2.10536 0.984784 2 1.25 2H5.25V0H7.25V2H13.25V0H15.25V2ZM13.25 4H7.25V6H5.25V4H2.25V8H18.25V4H15.25V6H13.25V4ZM18.25 10H2.25V18H18.25V10Z" fill="black"/>
</svg>
